X: 7649
T: Cold Frosty Morning
R: reel
M: 4/4
K: Adorian
|:E2 G2 A4|Bc d2 e4|G2 BA G2 D2|GABc d4|
E2 G2 A4|Bc d2 e2 ed|cBAc BA G2|A2 BA A4:|
e2 a2 a4|abag e4|edef g2 g2|edBd e2 e2|
A2 A2 c2 c2|d2 d2 e2 ed|cBAc BA G2|A2 AB A4||

